X:69
T:Heffian Dragoons March ThFife.69, The
B:Thompson, C. & Thompson, S., 'The Compleat Tutor for the Fife', London, c.1765-1780.
S:Digitised by National Library of Scotland at: https://archive.org/details/nlsmusic
Z:vmp Roger Hare, 2019.
M:2/4
L:1/8
Q:1/4=80
K:G
|: (B/c/) | dB/c/ dd | (d/^c/)(d/e/) dg/f/ | (dc)(cB) | !trill!A/>G/A/B/ A(3g/f/e/ |
dc/>d/ cB | !trill!A/>G/A/B/ AG/A/ | BB/c/ dc/B/ | {B}A3 :|
|: B | AA/B/ AB |c/B/c/d/ c(3B/c/d/ | !trill!ed e/d/c/B/ | A/G/F/E/ DB/c/ |
dB/c/ dg | dc/B/ cA/B/ |cA/B/ ca | cB/>A/ Bd | e/>d/g/>c/ B!trill!A | !invertedfermata!G3 :|

